packages/dnb-eufemia/assets/icons/baby_medium.svg

<svg width="25" height="24" viewBox="0 0 25 24" fill="none" xmlns="http://www.w3.org/2000/svg">
<path d="M15.604 17.6838C13.8415 19.6762 10.6585 19.6762 8.896 17.6838M14.738 1C18.414 3.46753 16.5387 9.45936 12.128 9.33931C10.1037 9.28422 8.43711 7.86158 7.88917 5.92347M7.88917 5.92347C9.19296 5.19277 10.6851 4.78407 12.25 4.78407C16.2124 4.78407 19.7087 7.40442 20.861 11.2378C22.2968 11.2378 23.5 12.4343 23.5 13.892C23.5 15.3498 22.2968 16.5463 20.861 16.5463C19.7087 20.3796 16.2124 23 12.25 23C8.2876 23 4.79135 20.3796 3.639 16.5463C2.20315 16.5463 1 15.3498 1 13.892C1 12.4343 2.20315 11.2378 3.639 11.2378C4.33625 8.91833 5.89163 7.04297 7.88917 5.92347Z" stroke="black" stroke-width="1.5" stroke-linecap="round" stroke-linejoin="round"/>
<path d="M10 14C10 14.5523 9.55228 15 9 15C8.44772 15 8 14.5523 8 14C8 13.4477 8.44772 13 9 13C9.55228 13 10 13.4477 10 14Z" fill="black"/>
<path d="M16 14C16 14.5523 15.5523 15 15 15C14.4477 15 14 14.5523 14 14C14 13.4477 14.4477 13 15 13C15.5523 13 16 13.4477 16 14Z" fill="black"/>
</svg>

<svg width="24" height="24" viewBox="0 0 24 24" fill="none" xmlns="http://www.w3.org/2000/svg"><path d="M15.604 17.684c-1.762 1.992-4.945 1.992-6.708 0M14.738 1c3.676 2.468 1.8 8.46-2.61 8.34-2.024-.056-3.69-1.478-4.239-3.417m0 0a8.904 8.904 0 0 1 4.361-1.139c3.962 0 7.459 2.62 8.611 6.454 1.436 0 2.639 1.196 2.639 2.654s-1.203 2.654-2.639 2.654C19.709 20.38 16.212 23 12.25 23c-3.962 0-7.459-2.62-8.611-6.454C2.203 16.546 1 15.35 1 13.892s1.203-2.654 2.639-2.654a9.075 9.075 0 0 1 4.25-5.315Zm.934 8.084h.346m5.652 0h.346m-5.919 0c0 .183-.16.243-.248.243-.092 0-.252-.06-.252-.243 0-.197.16-.257.252-.257.088 0 .248.06.248.257Zm5.998 0c0 .183-.16.243-.248.243-.091 0-.252-.06-.252-.243 0-.197.16-.257.252-.257.088 0 .248.06.248.257Z" stroke="#000" stroke-width="1.5" stroke-linecap="round" stroke-linejoin="round"/></svg>
